!!!COM: Haydn, Franz Joseph
!!!OPR: String Quartet in B-flat Major
!!!ONM: Opus 76, No. 4
!!!OTL: Affettuoso 
!!!OMV: 2
!!!SCT: H III:78
!!!SCA: Thematisch-bibliographisches Werkevererzeichnis (A. van Hoboken)
!!!YOR: Trautwein Edition
!!!EED: Frances Bennion
!!!ENC: Frances Bennion
!!!CDT: 1732/3/31/-1809/5/31/
!!!OCY: Österreich
!!!YEC: Copyright (c) 1994, 2000 Center for Computer Assisted Research in the Humanities
!!!YEM: Rights to all derivative editions reserved.
!!!YEM: Refer to licensing agreement for further details.
!!!YEN: United States of America
**kern	**kern	**kern	**kern
*k[b-e-a-]	*k[b-e-a-]	*k[b-e-a-]	*k[b-e-a-]
*E-:	*E-:	*E-:	*E-:
*clefF	*clefF	*clefC3	*clefF4
*M3/4	*M3/4	*M3/4	*M3/4
*tb48	*tb48	*tb48	*tb48
=1	=1	=1	=1
4e-	2.B-	4G	4E-
4d	.	4A-	4F
4e-	.	4G	4E-
=2	=2	=2	=2
4f	4d	2.B-	4BB-
2g	2e-	.	2EE-
=3	=3	=3	=3
4f	2.c	4A-	4F
4e	.	4B-	4G
4f	.	4A-	4F
=4	=4	=4	=4
4g	4e	2.c	4C
2a-	2f	.	2FF
=5	=5	=5	=5
4cc	4a-	2.r	2.r
4b	4g	.	.
4cc	4a-	.	.
=6	=6	=6	=6
4g	4e	4c	2.r
[4a-	4f	4A-	.
16a-]	4c	4F	.
32b-	.	.	.
32cc	.	.	.
32b-	.	.	.
32a-	.	.	.
32g	.	.	.
32f	.	.	.
=7	=7	=7	=7
4.e-	4B-	4G	2.BB-
.	2A-	2F	.
8d	.	.	.
8a-	.	.	.
8d	.	.	.
=8	=8	=8	=8
8e-	4G	4G	4EE-
8g	.	.	.
8b-	2r	2r	2r
8dd	.	.	.
8ee-	.	.	.
8gg	.	.	.
=9	=9	=9	=9
[2.bb-	4ee-	4g	2.r
.	4dd	4f	.
.	4ee-	4e-	.
=10	=10	=10	=10
4.bb-]	4ff	4d	2.r
.	2gg	4e-	.
8bb	.	.	.
8ccc	.	4e	.
8bb-	.	.	.
=11	=11	=11	=11
4aa-	4ff	8f	4F
.	.	8c	.
4gg	4ee	8B-	4G
.	.	8c	.
8ff	4ff	8A-	8A-
8fff	.	8A	8A
=12	=12	=12	=12
4eee-	4gg	4B-	4B-
2ddd	2aa-	2f	2B
=13	=13	=13	=13
4eee-	4gg	4e-	4c
4..d-	2B-	[2E-	2GG
32c	.	.	.
32d-	.	.	.
=14	=14	=14	=14
8c	4c	4E-]	4AA-
8.cc	.	.	.
.	2r	2r	4A-
16b	.	.	.
16dd	.	.	.
16cc	.	.	.
16ff	.	.	4r
16ee-	.	.	.
16cc	.	.	.
16a-	.	.	.
=15	=15	=15	=15
16g	4e-	4G	2.BB-
16a-	.	.	.
16a	.	.	.
16b-	.	.	.
4..A-	2d	2F	.
32G	.	.	.
32A-	.	.	.
=16	=16	=16	=16
4G	8e-	8E-	4EE-
.	8g	8e-	.
2r	8g	8e-	2r
.	8g	8e-	.
.	8g	8e-	.
.	8g	8e-	.
=17	=17	=17	=17
4cc	8g	8e-	2.r
.	8g	8e-	.
4b	8g	8e-	.
.	8g	8e-	.
4cc	8g	8e-	.
.	8g	8e-	.
=18	=18	=18	=18
4dd	4b	4f	4G
4.ee-	4cc	[2e-	4F#
.	4b	.	4G
8dd	.	.	.
=19	=19	=19	=19
4cc	4cc	8e-]	4A-
.	.	8d	.
4.ff	2cc 2f	4c	2A
.	.	[4f	.
8ee-	.	.	.
=20	=20	=20	=20
4dd	8f 8dd	8f]	4B-
.	8dd	8b-	.
2r	8dd	8b-	2r
.	8dd	8b-	.
.	8dd	8b-	.
.	8dd	8b-	.
=21	=21	=21	=21
4ff	8dd	8b-	2.r
.	8dd	8b-	.
4ee	8dd	8b-	.
.	8dd	8b-	.
4ff	8dd	8b-	.
.	8dd	8b-	.
=22	=22	=22	=22
4ff#	8dd	8b-	2.r
.	8dd	8b-	.
4.gg	8dd	8b-	.
.	8dd	8b-	.
.	8dd	8b-	.
8ff	8dd	8b-	.
=23	=23	=23	=23
24ee	4dd-	4b-	2r
24gg	.	.	.
24bb-	.	.	.
24ddd-	.	.	.
24bb-	.	.	.
24gg	.	.	.
24ee	2cc	2a	.
24ff	.	.	.
24aa	.	.	.
24ccc	.	.	.
24aa	.	.	.
24ff	.	.	.
4r	.	.	24E
.	.	.	24F
.	.	.	24A
.	.	.	24c
.	.	.	24A
.	.	.	24F
=24	=24	=24	=24
24dd	4b-	4g	2r
24ee-	.	.	.
24gg	.	.	.
24bb-	.	.	.
24gg	.	.	.
24ee-	.	.	.
24cc#	2a	2f	.
24dd	.	.	.
24ff	.	.	.
24aa	.	.	.
24ff	.	.	.
24dd	.	.	.
4r	.	.	24C#
.	.	.	24D
.	.	.	24F
.	.	.	24A
.	.	.	24F
.	.	.	24D
=25	=25	=25	=25
24b	4g	4e-	2r
24cc	.	.	.
24ee-	.	.	.
24gg	.	.	.
24ee-	.	.	.
24cc	.	.	.
24a	2f	2d	.
24b-	.	.	.
24dd	.	.	.
24ff	.	.	.
24dd	.	.	.
24b-	.	.	.
[4bb-	.	.	24DD
.	.	.	24FF
.	.	.	24AA
.	.	.	24BB-
.	.	.	24FF
.	.	.	24DD
=26	=26	=26	=26
24bb-]	4g	4e-	4EE-
24ff#	.	.	.
24gg	.	.	.
24dd	.	.	.
24ee-	.	.	.
24b	.	.	.
24cc	2r	2r	2r
24f#	.	.	.
24g	.	.	.
24d	.	.	.
24e-	.	.	.
24B	.	.	.
24c	.	.	.
24e-	.	.	.
24g	.	.	.
24b	.	.	.
24cc	.	.	.
24gg	.	.	.
=27	=27	=27	=27
24e	2.d	2.B-	[2.F
24f	.	.	.
24f#	.	.	.
24g	.	.	.
24a-	.	.	.
24a	.	.	.
24b-	.	.	.
24f	.	.	.
24f#	.	.	.
24g	.	.	.
24a-	.	.	.
24a	.	.	.
24b-	.	.	.
24dd	.	.	.
24ff	.	.	.
24aa	.	.	.
24bb-	.	.	.
24ddd	.	.	.
=28	=28	=28	=28
4.fff	4.e- 4.c	4.A	4.F]
8fff	8e- 8c	8A	8F
8fff	8e- 8c	8A	8F
8fff	8c 8e-	8A	8F
=29	=29	=29	=29
2.fff	2.e- 2.c	2.A	[2.BB-
=30	=30	=30	=30
4b-	4d 4B-	4B-	4.BB-]
2r	2r	2r	.
.	.	.	8BB-
.	.	.	8BB-
.	.	.	8BB-
=31	=31	=31	=31
2r	4B-	4D	8BB-
.	.	.	8BB-
.	4A	4C	8BB-
.	.	.	8BB-
4b-	4B-	4D	8BB-
.	.	.	8BB-
=32	=32	=32	=32
4a	4c	4E-	8BB-
.	.	.	8BB-
4b-	4d	4F	8BB-
.	.	.	8BB-
4cc	4e-	4G-	8BB-
.	.	.	8BB-
=33	=33	=33	=33
24dd	2.d 2.A-	[2.F	[2.BB-
24ff	.	.	.
24aa-	.	.	.
24ccc	.	.	.
24bb-	.	.	.
24aa-	.	.	.
24gg	.	.	.
24ff	.	.	.
24ee-	.	.	.
24dd	.	.	.
24cc	.	.	.
24b-	.	.	.
24a-	.	.	.
24g	.	.	.
24a-	.	.	.
24cc	.	.	.
24a-	.	.	.
24f	.	.	.
=34	=34	=34	=34
4e-	4A-	4F]	4BB-]
8d	2r	2r	2r
8r	.	.	.
24A	.	.	.
24B-	.	.	.
24B	.	.	.
24c	.	.	.
24d-	.	.	.
24d	.	.	.
=35	=35	=35	=35
4e-	[2.B-	4E-	4GG-
4d	.	4A-	4FF
4e-	.	4G-	4EE-
=36	=36	=36	=36
4f	2.B-]	4D	4BB-
2g-	.	2E-	2EE-
=37	=37	=37	=37
4a-	[2.e-	4e-	4C-
4g	.	4d-	4BB-
4a-	.	4c-	4AA-
=38	=38	=38	=38
4b-	2.e-]	4G	4EE-
2cc-	.	2A-	2AA-
=39	=39	=39	=39
4cc-	4a-	2.r	2.r
4b-	4g	.	.
4cc-	4a-	.	.
=40	=40	=40	=40
4f	4d	4c-	4A-
[4g-	2e-	4B-	4G-
16g-]	.	4G-	4E-
32cc-	.	.	.
32b-	.	.	.
32a-	.	.	.
32g-	.	.	.
32f	.	.	.
32e-	.	.	.
=41	=41	=41	=41
8.d	2A-	4F	[2.BB-
16f	.	.	.
4a-	.	4D	.
8.g-	4A	4E-	.
32f	.	.	.
32g-	.	.	.
=42	=42	=42	=42
4f	4B-	8D	4BB-]
.	.	8b-	.
2r	2r	8b-	2r
.	.	8b-	.
.	.	8b-	.
.	.	8b-	.
=43	=43	=43	=43
2.r	8cc	8b-	4EE-
.	8cc	8b-	.
.	8cc	8b-	4DD
.	8cc	8b-	.
.	8cc	8b-	4EE-
.	8cc	8b-	.
=44	=44	=44	=44
24cc	8g 8cc	8b-	4EE
24dd-	.	.	.
24cc	.	.	.
24bb-	8cc 8g	8b-	.
24gg	.	.	.
24ee	.	.	.
24cc	8cc 8a-	8a-	[4FF
24aa-	.	.	.
24ee	.	.	.
24ff	8cc 8a-	8a-	.
24b	.	.	.
24cc	.	.	.
24g	8cc 8a-	8F	24FF]
24a-	.	.	24AA-
24e	.	.	24C
24f	8cc 8a-	8F	24AA-
24a-	.	.	24FF
24cc	.	.	24EE-
=45	=45	=45	=45
24b-	8b- 8f	8a-	4DD
24cc	.	.	.
24b-	.	.	.
24aa-	8b- 8f	8a-	.
24ff	.	.	.
24dd	.	.	.
24b-	8b- 8g	8g	[4EE-
24gg	.	.	.
24dd	.	.	.
24ee-	8g 8b-	8g	.
24a	.	.	.
24b-	.	.	.
24f#	8g	8E-	24EE-]
24g	.	.	24GG
24d	.	.	24BB-
24e-	8g	8e-	24GG
24g	.	.	24EE-
24b-	.	.	24DD
=46	=46	=46	=46
2a-	4g	4e-	24CC
.	.	.	24EE-
.	.	.	24GG
.	.	.	24AA-
.	.	.	24BB-
.	.	.	24C
.	4f	2B-	24DD
.	.	.	24FF
.	.	.	24AA-
.	.	.	24BB-
.	.	.	24C
.	.	.	24D
4g	4e-	.	24EE-
.	.	.	24GG
.	.	.	24BB-
.	.	.	24E-
.	.	.	24F
.	.	.	24G
=47	=47	=47	=47
24f	[2.f	2.c	[2.A-
24g	.	.	.
24e	.	.	.
24f	.	.	.
24g	.	.	.
24a-	.	.	.
24b	.	.	.
24cc	.	.	.
24ee	.	.	.
24ff	.	.	.
24gg	.	.	.
24aa-	.	.	.
24bb	.	.	.
24ccc	.	.	.
24bb-	.	.	.
24aa-	.	.	.
24gg	.	.	.
24ff	.	.	.
=48	=48	=48	=48
4ee-	2.f]	[2.B-	2.A-]
24dd	.	.	.
24ee-	.	.	.
24ff	.	.	.
24gg	.	.	.
24aa-	.	.	.
24bb-	.	.	.
24ccc	.	.	.
24ddd	.	.	.
24eee-	.	.	.
24fff	.	.	.
24ggg	.	.	.
24aaa-	.	.	.
=49	=49	=49	=49
2bbb-	2e-	2B-]	2.G
4bbb	4d-	[4e-	.
=50	=50	=50	=50
4cccc	4c	4e-]	4A-
2r	2r	2r	2r
=51	=51	=51	=51
2A-	2d	2F	2BB-
16G	4r	4r	4r
16A-	.	.	.
8r	.	.	.
=52	=52	=52	=52
4ee-	2.r	4r	4EE-
4dd	.	4a-	2r
4ee-	.	4g	.
=53	=53	=53	=53
4ff	4ee-	4a-	2.r
4gg	4dd	4b-	.
4r	4ee-	4cc	.
=54	=54	=54	=54
4ff	4ff	4r	4r
4ee	4gg	4d-	4B-
4ff	4r	4c	4A-
=55	=55	=55	=55
4gg	4r	4d-	4B-
4aa-	4g-	4e-	4c
4r	4f	[4f	[4d-
=56	=56	=56	=56
4aa	4r	2f]	4d-]
2bb-	4a-	.	4d
.	4g	[4g	[4e-
=57	=57	=57	=57
4bb	4r	4g]	4e-]
4.ccc	8.b-	2g	4e
.	16a-	.	.
.	8g	.	4e
8bb-	8cc	.	.
=58	=58	=58	=58
2aa	24cc	2.f	2e-
.	24ee-	.	.
.	24ff	.	.
.	24aa	.	.
.	24ff	.	.
.	24ee-	.	.
.	24cc	.	.
.	24ee-	.	.
.	24ff	.	.
.	24aa	.	.
.	24ff	.	.
.	24ee-	.	.
4bb-	24b-	.	4d
.	24dd	.	.
.	24ff	.	.
.	24bb-	.	.
.	24ff	.	.
.	24dd	.	.
=59	=59	=59	=59
2gg	24b-	2.e-	2d-
.	24dd-	.	.
.	24ee-	.	.
.	24gg	.	.
.	24ee-	.	.
.	24dd-	.	.
.	24b-	.	.
.	24dd-	.	.
.	24ee-	.	.
.	24gg	.	.
.	24ee-	.	.
.	24dd-	.	.
4aa-	24a-	.	4c
.	24cc	.	.
.	24ee-	.	.
.	24aa-	.	.
.	24ee-	.	.
.	24cc	.	.
=60	=60	=60	=60
2aa-	24aa-	2d	2B-
.	24ff	.	.
.	24dd	.	.
.	24b-	.	.
.	24a-	.	.
.	24f	.	.
.	24d	.	.
.	24f	.	.
.	24a-	.	.
.	24cc	.	.
.	24a-	.	.
.	24f	.	.
4gg	24e-	4e-	4c
.	24g	.	.
.	24b	.	.
.	24cc	.	.
.	24dd	.	.
.	24ee-	.	.
=61	=61	=61	=61
24ff	4cc	4f	4A-
24bb	.	.	.
24ccc	.	.	.
24gg	.	.	.
24aa-	.	.	.
24ee	.	.	.
24ff	2r	2r	2r
24b	.	.	.
24cc	.	.	.
24g	.	.	.
24a-	.	.	.
24e	.	.	.
24f	.	.	.
24cc	.	.	.
24b-	.	.	.
24a-	.	.	.
24g	.	.	.
24f	.	.	.
=62	=62	=62	=62
24e-	2.e-	2.G	[2.BB-
24b-	.	.	.
24a	.	.	.
24a-	.	.	.
24g	.	.	.
24f	.	.	.
24e-	.	.	.
24ee-	.	.	.
24dd	.	.	.
24cc	.	.	.
24b-	.	.	.
24a-	.	.	.
24g	.	.	.
24b-	.	.	.
24dd	.	.	.
24ee-	.	.	.
24gg	.	.	.
24bb-	.	.	.
=63	=63	=63	=63
4.bb-	4.A- 4.d	4.F	4.BB-]
8bb-	8A- 8d	8F	8BB-
8bb-	8A- 8d	8F	8BB-
8bb-	8d 8A-	8F	8BB-
=64	=64	=64	=64
2.bb-	2.A- 2.d	2.F	2.BB-
=65	=65	=65	=65
4e-	4e- 4G	4E-	4C 4CC
8r	8r	8r	8r
8ee-	8g	8d-	8B-
8ee-	8g	8d-	8B-
8ee-	8g	8d-	8B-
=66	=66	=66	=66
2.ee-	2.g	2.d-	2.B-
=67	=67	=67	=67
4A-	4a-	4c-	4c-
8r	8r	2r	2r
8cc-	8a-	.	.
8cc-	8a-	.	.
8cc-	8a-	.	.
=68	=68	=68	=68
4b-	4g-	2.r	4BB-
4r	4r	.	4r
8d	8A-	.	4BB-
8r	8r	.	.
=69	=69	=69	=69
4e-	4B-	4G	2.EE-
4d	4c-	4A-	.
4e-	4B-	4G	.
=70	=70	=70	=70
2.f	2.c-	2.A-	4DD
.	.	.	4CC#
.	.	.	4DD
=71	=71	=71	=71
4e-	4B-	4G	2.EE-
4d	4c-	4A-	.
4e-	4B-	4G	.
=72	=72	=72	=72
2.f	24c-	2.A-	4DD
.	24A-	.	.
.	24B-	.	.
.	24c-	.	.
.	24A-	.	.
.	24B-	.	.
.	24c-	.	4CC#
.	24A-	.	.
.	24B-	.	.
.	24c-	.	.
.	24A-	.	.
.	24B-	.	.
.	24c-	.	4DD
.	24A-	.	.
.	24B-	.	.
.	24c-	.	.
.	24A-	.	.
.	24B-	.	.
=73	=73	=73	=73
4e-	4B-	4G	24EE-
.	.	.	24DD
.	.	.	24EE-
.	.	.	24GG
.	.	.	24BB-
.	.	.	24GG
4e- 4G	4B-	4E-	24EE-
.	.	.	24DD
.	.	.	24EE-
.	.	.	24GG
.	.	.	24BB-
.	.	.	24GG
4e- 4G	4B-	4E-	24EE-
.	.	.	24DD
.	.	.	24EE-
.	.	.	24GG
.	.	.	24BB-
.	.	.	24GG
=74	=74	=74	=74
2.G 2.e-	2.B-	2.E-	2.EE-
==	==	==	==
*-	*-	*-	*-
!!!RWG1: This file contains only pitch and duration data.
!!!RWG2: Transposing instruments are not transposed.
!!!RWG3: Spines may have incompatible meters.
!!!RWG4: Durations of rests and tied notes may be interpreted.
!!!RWG: Key is interpreted using the Humdrum key tool.
!!!GTL: 6 Quartetti ("Erdödy")
!!!OPT: Sunrise
!!!AFT: stage1
!!!END: 1997/04/15
!!format changes:
!!content changes:
!!public access: complete
!!!KEY: 3912130522
!!!EMD: Converted from MuseData to Humdrum Dec 16, 2000, by Andreas Kornstaedt using muse2kern.
